assets/img/parking.svg

<svg 
 xmlns="http://www.w3.org/2000/svg"
 xmlns:xlink="http://www.w3.org/1999/xlink"
 width="50px" height="50px">
<path fill-rule="evenodd"  fill-opacity="0" fill="rgb(33, 130, 238)"
 d="M0.000,0.000 L50.000,0.000 L50.000,50.000 L0.000,50.000 L0.000,0.000 Z"/>
<path fill-rule="evenodd"  fill="rgb(0, 111, 235)"
 d="M29.021,45.021 C25.810,48.232 21.541,50.000 17.000,50.000 C12.459,50.000 8.190,48.232 4.979,45.021 C1.768,41.810 -0.000,37.541 -0.000,33.000 C-0.000,28.459 1.768,24.190 4.979,20.979 C8.190,17.768 12.459,16.000 17.000,16.000 C21.541,16.000 25.810,17.768 29.021,20.979 C32.232,24.190 34.000,28.459 34.000,33.000 C34.000,37.541 32.232,41.810 29.021,45.021 ZM27.612,22.388 C24.778,19.553 21.009,17.992 17.000,17.992 C12.991,17.992 9.222,19.553 6.388,22.388 C3.553,25.222 1.992,28.991 1.992,33.000 C1.992,37.009 3.553,40.777 6.388,43.612 C9.222,46.447 12.991,48.008 17.000,48.008 C21.009,48.008 24.778,46.447 27.612,43.612 C30.447,40.777 32.008,37.009 32.008,33.000 C32.008,28.991 30.447,25.222 27.612,22.388 ZM18.696,36.203 L14.609,36.203 L14.609,41.750 L12.617,41.750 L12.617,24.250 L18.696,24.250 C21.935,24.250 24.570,26.885 24.570,30.124 L24.570,30.329 C24.570,33.568 21.935,36.203 18.696,36.203 ZM22.578,30.124 C22.578,27.983 20.837,26.242 18.696,26.242 L14.609,26.242 L14.609,34.211 L18.696,34.211 C20.837,34.211 22.578,32.469 22.578,30.329 L22.578,30.124 Z"/>
</svg>

<svg id="Слой_1" data-name="Слой 1" xmlns="http://www.w3.org/2000/svg" viewBox="0 0 50 50"><defs><style>.cls-1{fill:#2182ee;fill-opacity:0;}.cls-2{fill:#11a2f6;}</style></defs><title>parking</title><path class="cls-1" d="M0,0H50V50H0Z"/><path class="cls-2" d="M29,45a17,17,0,1,1,5-12A16.89,16.89,0,0,1,29,45ZM27.61,22.39a15,15,0,0,0-21.22,0A15,15,0,0,0,17,48,15,15,0,0,0,27.61,22.39ZM18.7,36.2H14.61v5.55h-2V24.25H18.7a5.89,5.89,0,0,1,5.87,5.87v.21A5.88,5.88,0,0,1,18.7,36.2Zm3.88-6.08a3.88,3.88,0,0,0-3.88-3.88H14.61v8H18.7a3.88,3.88,0,0,0,3.88-3.88Z"/></svg>
